docs/.gitbook/assets/icon-app-window-grid-2x2-16@dark.svg

<svg width="32" height="32" viewBox="0 0 16 16" fill="none" xmlns="http://www.w3.org/2000/svg">
<rect x="0" y="0" width="16" height="16" fill="#181c1f"/>
<path fill-rule="evenodd" clip-rule="evenodd" d="M3.75 1C2.23122 1 1 2.23122 1 3.75V12.25C1 13.7688 2.23122 15 3.75 15H12.25C13.7688 15 15 13.7688 15 12.25V3.75C15 2.23122 13.7688 1 12.25 1H3.75ZM2.5 3.75C2.5 3.05964 3.05964 2.5 3.75 2.5H12.25C12.9404 2.5 13.5 3.05964 13.5 3.75V12.25C13.5 12.9404 12.9404 13.5 12.25 13.5H3.75C3.05964 13.5 2.5 12.9404 2.5 12.25V3.75ZM4 5C4 4.44772 4.44772 4 5 4H6.5C7.05228 4 7.5 4.44772 7.5 5V6.5C7.5 7.05228 7.05228 7.5 6.5 7.5H5C4.44772 7.5 4 7.05228 4 6.5V5ZM9.5 4C8.94772 4 8.5 4.44772 8.5 5V6.5C8.5 7.05228 8.94772 7.5 9.5 7.5H11C11.5523 7.5 12 7.05228 12 6.5V5C12 4.44772 11.5523 4 11 4H9.5ZM9.5 8.5C8.94772 8.5 8.5 8.94772 8.5 9.5V11C8.5 11.5523 8.94772 12 9.5 12H11C11.5523 12 12 11.5523 12 11V9.5C12 8.94772 11.5523 8.5 11 8.5H9.5ZM5 8.5C4.44772 8.5 4 8.94772 4 9.5V11C4 11.5523 4.44772 12 5 12H6.5C7.05228 12 7.5 11.5523 7.5 11V9.5C7.5 8.94772 7.05228 8.5 6.5 8.5H5Z" fill="#fff"/>
</svg>

<svg xmlns="http://www.w3.org/2000/svg" width="32" height="32" fill="none" viewBox="0 0 16 16"><path fill="#181c1f" d="M0 0h16v16H0z"/><path fill="#fff" fill-rule="evenodd" d="M3.75 1A2.75 2.75 0 0 0 1 3.75v8.5A2.75 2.75 0 0 0 3.75 15h8.5A2.75 2.75 0 0 0 15 12.25v-8.5A2.75 2.75 0 0 0 12.25 1zM2.5 3.75c0-.69.56-1.25 1.25-1.25h8.5c.69 0 1.25.56 1.25 1.25v8.5c0 .69-.56 1.25-1.25 1.25h-8.5c-.69 0-1.25-.56-1.25-1.25zM4 5a1 1 0 0 1 1-1h1.5a1 1 0 0 1 1 1v1.5a1 1 0 0 1-1 1H5a1 1 0 0 1-1-1zm5.5-1a1 1 0 0 0-1 1v1.5a1 1 0 0 0 1 1H11a1 1 0 0 0 1-1V5a1 1 0 0 0-1-1zm0 4.5a1 1 0 0 0-1 1V11a1 1 0 0 0 1 1H11a1 1 0 0 0 1-1V9.5a1 1 0 0 0-1-1zM5 8.5a1 1 0 0 0-1 1V11a1 1 0 0 0 1 1h1.5a1 1 0 0 0 1-1V9.5a1 1 0 0 0-1-1z" clip-rule="evenodd"/></svg>
